X: 103
T: Arazbâr Seyir
C: Rauf Yektâ
O: Turkey
F: http://compmusic.upf.edu/node/140
N: arazbar--seyir--semai--1--rauf_yekta
N: makam= arazbar
N: form= seyir
N: usul= semai = 3/4
M: 3/4
L: 1/16
K: C _2/4B _2/4e  
Q: 1/4=120
%%MIDI tuningsystem comma53
f8 g4  | g8 a4  | g4 f4 e4  | d4 c8  | d4 e4 f4  | \
w:   |   |   |   |   | 
g4 a4 g4  | g4 f4 e4  | f4 g8  | g8 a4  | 
w:   |   |   |   | 
c'4 _b8  | _b4 a8  | a4 g4 f4  | e4 f4 g4  | \
w:   |   |   |   | 
a4 g8  | f8 e4  | d8 z4  | f4 g4 a4  | g8 d4  | 
w:   |   |   |   |   | 
d8 e4  | d4 c4 B4  | z4 c4 d4  | e4 d8  | c8 B4  | \
w:   |   |   |   |   | 
A8 g4  | e4 f4 g4  | a4 g8  | g8 f4  | 
w:   |   |   |   | 
a4 g8  | d8 e4  | f4 e4 d4  | c8 B4  | A8 z4  | |


